X:1
T:Man of sorrows: what a name
T:Man of sorrows: what a name
T:HALLELUJIAH! WHAT A SAVIOUR
T: Alternate harmony & descant Colin Oliver 2018
T:Original words and music Philip P. Bliss, 1875
T:Public domain
T:Public domain
C:Words and music Philip P. Bliss, 1875
Z:Public domain
%%score 1 2 { ( 3 4 8 ) | ( 5 6 7 ) }
L:1/8
Q:1/4=86
M:4/4
K:Bb
V:1 treble nm="Descant" snm="Descant"
V:2 treble nm="Unison" snm="Unison"
V:3 treble nm="Piano"
V:4 treble 
V:8 treble 
V:5 bass 
V:6 bass 
V:7 bass 
V:1
 z8 | z8 | z8 | z8 | z8 | z8 | z8 | z8 :: z8 | z8 | z8 | z8 | z8 | z8 | z8 |1 z8 :|2 z8 || z8 | %18
w: ||||||||||||||||||
[K:C] z8 ||[K:C]"^Descant" G2 G2 c2 c2 | AB cd (e2 d2) | cd ef g2 e2 | d3 c B4 | c2 d2 ef g2 | %24
w: |5. When he comes, our|glo- * rious * King *|all * his * ran- somed|home to bring,|then a- new * this|
 g3 f e2 ed | c2 e2 g2 e2 | f4 e4 |] %27
w: song we'll sing Al- le-|lu- ia, what a|Sav- iour!|
V:2
 z8 | z8 | z8 | z8 | z8 | z8 | z8 | z8 :: z8 | z8 | z8 | z8 | z8 | z8 | z8 |1 z8 :|2 z8 || z8 | %18
w: ||||||||||||||||||
[K:C] z8 ||[K:C]"C" G2"G7" G2"C" G2 E2 |"Am" c2 c2"E7" B4 |"F" A2"Dm" A2"C" G2"Am" c2 | %22
w: |5.When he comes, our|glo- rious King|all his ran- somed|
"G" B2"D7" A2"G7" G4 |"C" G2"G7" G2"C" G2 E2 |"Am7" c2"F" c2"C" c2"Am" cd |"C" e4"G7" d2"Am" cA | %26
w: home to bring,|then a- new this|song we'll sing Al- le-|lu- ia, what a|
"F" A4"C" G4 |] %27
w: Sav- iour!|
V:3
"Bb" F2 F2"F" F2"Bb" D2 |"Gm" B2 B2"D7" A4 |"Eb" G2"Cm" G2"Bb" F2 B2 |"F" A2"C7" G2"F" F4 | %4
w: 1. Man of sor- rows—|what a name|for the Son of|God, who came|
w: 2. Mocked by in- sults|harsh and crude|in my place con-|demned he stood,|
"Bb" F2"F7" F2"Bb" F2 D2 | B2"Eb" B2"Bb" B2"Gm" Bc |"Bb" d4"F7" c2"Gm" BG |"Eb" G4"Bb" F4 :: %8
w: ru- ined sin- ners|to re- claim: Al- le-|lu- ia, what a|Sav- iour!|
w: sealed my par- don|with his blood: Al- le-|lu- ia, what a|Sav- iour!|
"Bb""^Alternate harmony" F2"F7" F2"Bb" F2 D2 |"Gm" B2 B2"D7" A4 |"Eb" G2"Cm" G2"Bb" F2"Gm" B2 | %11
w: 3.Guil- ty, help- less,|lost were we:|Blame- less Lamb- of|
w: 4.He was lift- ed|up to die:|‘It is fin- ished!’|
"F" A2"C7" G2"F7" F4 |"Bb" F2"F7" F2"Bb" F2 D2 |"Gm7" B2"Eb" B2"Bb" B2"Gm" Bc | %14
w: God was he,|Sac- ri- ficed to-|set- us free: Al- le-|
w: was his cry;|now in heaven ex-|alt- ed high: Al- le-|
"Bb" d4"F7" c2"Gm" BG |1"Eb" G4"Bb" F4 :|2"Eb" G4"Bb" F4 || B2 BA"Eb" G2"C7" G2 | %18
w: lu- ia! What a|Sav- iour!|Sav- iour!||
w: lu- ia! What a||||
[K:C]"G7" [FG]4 !^![B,DG]4 ||[K:C]"C" G2"G7" G2"C" G2 E2 |"Am" c2 c2"E7" B4 | %21
w: |||
w: |||
"F" A2"Dm" A2"C" G2"Am" c2 |"G" B2"D7" A2"G7" G4 |"C" G2"G7" G2"C" G2 E2 | %24
w: |||
w: |||
"Am7" c2"F" c2"C" c2"Am" cd |"C" e4"G7" d2"Am" cA |"F" A4"C" G4 |] %27
w: |||
w: |||
V:4
 D2 D2 C2 B,2 | D2 D2 (D2 C2) | B,2 C2 F2 F2 | F2 =E2 F4 | D2 C2 B,2 B,2 | D2 E2 D2 DF | F4 E2 DD | %7
 E4 D4 :: D2 C2 DC B,A, | B,2 D2 (D2 C2) | B,2 C2 D2 D2 | F2 =E2 C4 | D2 C2 D2 D2 | DF E2 D2 DF | %14
 F4 E2 DD |1 E4 D4 :|2 E4 D4 || [DF]2 [DF]2 [B,E]2 [B,=E]2 |[K:C] [B,D]4 x2 F2 || %19
[K:C] E2 D2 ED CB, | C2 E2 (E2 D2) | C2 D2 E2 E2 | G2 ^F2 D4 | E2 D2 E2 E2 | EG F2 G2 EG | %25
 G4 F2 EE | F4 E4 |] %27
V:5
 B,2 B,2 F,2 F,2 | G,2 G,2 ^F,4 | G,2 A,2 B,2 D2 | C3 B, A,4 | B,2 A,2 B,2 F,2 | F,2 G,2 F,2 B,A, | %6
 B,4 A,2 B,B, | B,4 B,4 :: B,2 A,2 B,2 B,2 | G,2 G,2 ^F,4 | E,F, G,A, B,2 G,2 | C3 B, A,4 | %12
 B,2 A,2 B,2 B,A, | G,2 G,2 F,2 B,A, | B,2 D2 A,2 B,2 |1 ((B,2 G,2)) B,4 :|2 ((B,2 G,2)) B,4 || %17
 !^!B,,2 [F,B,]2 E,2 C,2 |[K:C] G,,2 D,2 G,2 F,2 ||[K:C] C2 B,2 C2 C2 | A,2 A,2 ^G,4 | %21
 F,G, A,2 C2 A,2 | D3 C B,4 | C2 B,2 C2 CB, | A,2 A,2 G,2 CB, | C2 E2 B,2 C2 | %26
 (((((C2 A,2))))) C4 |] %27
V:6
 B,,2 B,,2 A,,2 B,,2 | G,,2 G,2 D,4 | E,2 E,2 D,2 B,,2 | C,2 C,2 F,4 | B,,2 E,2 D,2 B,,2 | %5
w: |||||
 B,,2 B,,2 B,,2 D,F, | B,4 F,2 G,G, | E,4 B,,4 :: B,,2 F,E, D,2 B,,2 | G,,A,, B,,C, D,4 | %10
w: |||||
 E,2 E,2 D,2 B,,2 | C,2 C,2 (F,2 E,2) | D,2 F,E, D,2 B,,2 | G,,D, E,2 B,,2 G,F, | %14
w: |||* * * * Al- le-|
 B,,2 D,2 F,2 D,2 |1 B,,4 B,,4 :|2 B,,4 B,,4 || !^!B,,,2 B,,2 E,,2 C,,2 |[K:C] !^!G,,,4 !^!G,,4 || %19
w: lu- ia! what a|Sav- iour!|Sav- iour!|||
[K:C] C,2 G,F, E,2 C,2 | A,,B,, C,D, E,4 | F,2 F,2 E,2 C,2 | D,2 D,2 (G,2 F,2) | E,2 G,F, E,2 C,2 | %24
w: |||||
 A,,E, F,2 C,2 A,G, | C,2 E,2 G,2 E,2 | C,4 C,4 |] %27
w: * * * * Al- le-|lu- ia! what a|Sav- iour!|
V:7
 x8 | x8 | x8 | x8 | x8 | x8 | x8 | x8 :: x8 | x8 | x8 | x8 | x8 | x8 | x8 |1 (E,,2 G,,2) x4 :|2 %16
 x6 [F,,F,]2 || x8 |[K:C] x8 ||[K:C] x8 | x8 | x8 | x8 | x8 | x8 | x8 | (F,,2 A,,2) x4 |] %27
V:8
 x8 | x8 | x8 | x8 | x8 | x8 | x8 | x8 :: x8 | x8 | x8 | x8 | x8 | x8 | x8 |1 x8 :|2 x6 [Fd][Ec] || %17
 x8 |[K:C] x8 ||[K:C] x8 | x8 | x8 | x8 | x8 | x8 | x8 | x8 |] %27

